BMSTU-2/ООП/Мое_Лабы/Cosmic Latte Preset 8.xmp
<x:xmpmeta xmlns:x="adobe:ns:meta/" x:xmptk="Adobe XMP Core 5.6-c140 79.160451, 2017/05/06-01:08:21        ">
 <rdf:RDF xmlns:rdf="http://www.w3.org/1999/02/22-rdf-syntax-ns#">
  <rdf:Description rdf:about=""
    xmlns:crs="http://ns.adobe.com/camera-raw-settings/1.0/"
   crs:PresetType="Normal"
   crs:Cluster=""
   crs:UUID="290A77F8F62B81488FD44F18DBEB78F7"
   crs:SupportsAmount="False"
   crs:SupportsColor="True"
   crs:SupportsMonochrome="True"
   crs:SupportsHighDynamicRange="True"
   crs:SupportsNormalDynamicRange="True"
   crs:SupportsSceneReferred="True"
   crs:SupportsOutputReferred="True"
   crs:CameraModelRestriction=""
   crs:Copyright=""
   crs:ContactInfo=""
   crs:Version="13.3"
   crs:ProcessVersion="6.7"
   crs:WhiteBalance="Custom"
   crs:Temperature="5450"
   crs:Tint="+9"
   crs:Exposure2012="+0.55"
   crs:Contrast2012="+19"
   crs:Highlights2012="-47"
   crs:Shadows2012="+29"
   crs:Whites2012="+17"
   crs:Blacks2012="+14"
   crs:Clarity2012="+34"
   crs:Dehaze="0"
   crs:Vibrance="-24"
   crs:Saturation="+45"
   crs:ParametricShadows="+38"
   crs:ParametricDarks="+31"
   crs:ParametricLights="-40"
   crs:ParametricHighlights="-3"
   crs:ParametricShadowSplit="14"
   crs:ParametricMidtoneSplit="43"
   crs:ParametricHighlightSplit="75"
   crs:Sharpness="38"
   crs:SharpenRadius="+1.0"
   crs:SharpenDetail="25"
   crs:SharpenEdgeMasking="0"
   crs:LuminanceSmoothing="24"
   crs:LuminanceNoiseReductionDetail="50"
   crs:LuminanceNoiseReductionContrast="0"
   crs:ColorNoiseReduction="25"
   crs:ColorNoiseReductionDetail="50"
   crs:ColorNoiseReductionSmoothness="50"
   crs:HueAdjustmentRed="+10"
   crs:HueAdjustmentOrange="-13"
   crs:HueAdjustmentYellow="-7"
   crs:HueAdjustmentGreen="-23"
   crs:HueAdjustmentAqua="+13"
   crs:HueAdjustmentBlue="-13"
   crs:HueAdjustmentPurple="-24"
   crs:HueAdjustmentMagenta="+16"
   crs:SaturationAdjustmentRed="-33"
   crs:SaturationAdjustmentOrange="-42"
   crs:SaturationAdjustmentYellow="-44"
   crs:SaturationAdjustmentGreen="-62"
   crs:SaturationAdjustmentAqua="-51"
   crs:SaturationAdjustmentBlue="-53"
   crs:SaturationAdjustmentPurple="-7"
   crs:SaturationAdjustmentMagenta="-7"
   crs:LuminanceAdjustmentRed="+2"
   crs:LuminanceAdjustmentOrange="+22"
   crs:LuminanceAdjustmentYellow="+16"
   crs:LuminanceAdjustmentGreen="-6"
   crs:LuminanceAdjustmentAqua="-1"
   crs:LuminanceAdjustmentBlue="+9"
   crs:LuminanceAdjustmentPurple="+20"
   crs:LuminanceAdjustmentMagenta="+28"
   crs:SplitToningShadowHue="33"
   crs:SplitToningShadowSaturation="50"
   crs:SplitToningHighlightHue="241"
   crs:SplitToningHighlightSaturation="13"
   crs:SplitToningBalance="0"
   crs:ColorGradeMidtoneHue="0"
   crs:ColorGradeMidtoneSat="0"
   crs:ColorGradeShadowLum="0"
   crs:ColorGradeMidtoneLum="0"
   crs:ColorGradeHighlightLum="0"
   crs:ColorGradeBlending="100"
   crs:ColorGradeGlobalHue="0"
   crs:ColorGradeGlobalSat="0"
   crs:ColorGradeGlobalLum="0"
   crs:AutoLateralCA="0"
   crs:LensManualDistortionAmount="0"
   crs:VignetteAmount="0"
   crs:DefringePurpleAmount="0"
   crs:DefringePurpleHueLo="30"
   crs:DefringePurpleHueHi="70"
   crs:DefringeGreenAmount="0"
   crs:DefringeGreenHueLo="40"
   crs:DefringeGreenHueHi="60"
   crs:PerspectiveUpright="0"
   crs:PerspectiveVertical="0"
   crs:PerspectiveHorizontal="0"
   crs:PerspectiveRotate="0.0"
   crs:PerspectiveAspect="0"
   crs:PerspectiveScale="100"
   crs:PerspectiveX="0.00"
   crs:PerspectiveY="0.00"
   crs:GrainAmount="0"
   crs:PostCropVignetteAmount="0"
   crs:ShadowTint="0"
   crs:RedHue="+10"
   crs:RedSaturation="+24"
   crs:GreenHue="+60"
   crs:GreenSaturation="-93"
   crs:BlueHue="0"
   crs:BlueSaturation="-45"
   crs:ConvertToGrayscale="False"
   crs:OverrideLookVignette="False"
   crs:ToneCurveName2012="Custom"
   crs:CameraProfile="Embedded"
   crs:HasSettings="True">
   <crs:Name>
    <rdf:Alt>
     <rdf:li xml:lang="x-default">Cosmic Latte Preset 8</rdf:li>
    </rdf:Alt>
   </crs:Name>
   <crs:ShortName>
    <rdf:Alt>
     <rdf:li xml:lang="x-default"/>
    </rdf:Alt>
   </crs:ShortName>
   <crs:SortName>
    <rdf:Alt>
     <rdf:li xml:lang="x-default"/>
    </rdf:Alt>
   </crs:SortName>
   <crs:Group>
    <rdf:Alt>
     <rdf:li xml:lang="x-default">Cosmic Latte Mobile &amp; Desktop Lightroom Presets</rdf:li>
    </rdf:Alt>
   </crs:Group>
   <crs:Description>
    <rdf:Alt>
     <rdf:li xml:lang="x-default"/>
    </rdf:Alt>
   </crs:Description>
   <crs:ToneCurvePV2012>
    <rdf:Seq>
     <rdf:li>8, 0</rdf:li>
     <rdf:li>123, 141</rdf:li>
     <rdf:li>255, 255</rdf:li>
    </rdf:Seq>
   </crs:ToneCurvePV2012>
   <crs:ToneCurvePV2012Red>
    <rdf:Seq>
     <rdf:li>0, 0</rdf:li>
     <rdf:li>30, 7</rdf:li>
     <rdf:li>59, 25</rdf:li>
     <rdf:li>118, 119</rdf:li>
     <rdf:li>184, 201</rdf:li>
     <rdf:li>255, 255</rdf:li>
    </rdf:Seq>
   </crs:ToneCurvePV2012Red>
   <crs:ToneCurvePV2012Green>
    <rdf:Seq>
     <rdf:li>0, 0</rdf:li>
     <rdf:li>60, 32</rdf:li>
     <rdf:li>118, 125</rdf:li>
     <rdf:li>183, 204</rdf:li>
     <rdf:li>255, 255</rdf:li>
    </rdf:Seq>
   </crs:ToneCurvePV2012Green>
   <crs:ToneCurvePV2012Blue>
    <rdf:Seq>
     <rdf:li>0, 0</rdf:li>
     <rdf:li>61, 42</rdf:li>
     <rdf:li>117, 125</rdf:li>
     <rdf:li>179, 201</rdf:li>
     <rdf:li>255, 255</rdf:li>
    </rdf:Seq>
   </crs:ToneCurvePV2012Blue>
  </rdf:Description>
 </rdf:RDF>
</x:xmpmeta>
