BMSTU-2/ООП/Мое_Лабы/Cosmic Latte Preset 3.xmp
<x:xmpmeta xmlns:x="adobe:ns:meta/" x:xmptk="Adobe XMP Core 5.6-c140 79.160451, 2017/05/06-01:08:21        ">
 <rdf:RDF xmlns:rdf="http://www.w3.org/1999/02/22-rdf-syntax-ns#">
  <rdf:Description rdf:about=""
    xmlns:crs="http://ns.adobe.com/camera-raw-settings/1.0/"
   crs:PresetType="Normal"
   crs:Cluster=""
   crs:UUID="5B17A6E1E543474DAB71A5360B8132F2"
   crs:SupportsAmount="False"
   crs:SupportsColor="True"
   crs:SupportsMonochrome="True"
   crs:SupportsHighDynamicRange="True"
   crs:SupportsNormalDynamicRange="True"
   crs:SupportsSceneReferred="True"
   crs:SupportsOutputReferred="True"
   crs:CameraModelRestriction=""
   crs:Copyright=""
   crs:ContactInfo=""
   crs:Version="13.3"
   crs:ProcessVersion="6.7"
   crs:WhiteBalance="As Shot"
   crs:Exposure2012="+0.12"
   crs:Contrast2012="+14"
   crs:Highlights2012="-24"
   crs:Shadows2012="+72"
   crs:Whites2012="+50"
   crs:Blacks2012="+66"
   crs:Clarity2012="+2"
   crs:Dehaze="0"
   crs:Vibrance="+17"
   crs:Saturation="-11"
   crs:ParametricShadows="+49"
   crs:ParametricDarks="-13"
   crs:ParametricLights="-21"
   crs:ParametricHighlights="-22"
   crs:ParametricShadowSplit="25"
   crs:ParametricMidtoneSplit="50"
   crs:ParametricHighlightSplit="75"
   crs:Sharpness="66"
   crs:SharpenRadius="+1.7"
   crs:SharpenDetail="25"
   crs:SharpenEdgeMasking="0"
   crs:LuminanceSmoothing="25"
   crs:LuminanceNoiseReductionDetail="50"
   crs:LuminanceNoiseReductionContrast="0"
   crs:ColorNoiseReduction="25"
   crs:ColorNoiseReductionDetail="50"
   crs:ColorNoiseReductionSmoothness="50"
   crs:HueAdjustmentRed="+38"
   crs:HueAdjustmentOrange="+7"
   crs:HueAdjustmentYellow="-44"
   crs:HueAdjustmentGreen="-18"
   crs:HueAdjustmentAqua="-23"
   crs:HueAdjustmentBlue="+8"
   crs:HueAdjustmentPurple="+2"
   crs:HueAdjustmentMagenta="-4"
   crs:SaturationAdjustmentRed="-58"
   crs:SaturationAdjustmentOrange="-42"
   crs:SaturationAdjustmentYellow="-38"
   crs:SaturationAdjustmentGreen="-54"
   crs:SaturationAdjustmentAqua="-75"
   crs:SaturationAdjustmentBlue="-78"
   crs:SaturationAdjustmentPurple="-56"
   crs:SaturationAdjustmentMagenta="-47"
   crs:LuminanceAdjustmentRed="-18"
   crs:LuminanceAdjustmentOrange="-9"
   crs:LuminanceAdjustmentYellow="-5"
   crs:LuminanceAdjustmentGreen="-33"
   crs:LuminanceAdjustmentAqua="-29"
   crs:LuminanceAdjustmentBlue="-42"
   crs:LuminanceAdjustmentPurple="-30"
   crs:LuminanceAdjustmentMagenta="-25"
   crs:SplitToningShadowHue="37"
   crs:SplitToningShadowSaturation="15"
   crs:SplitToningHighlightHue="241"
   crs:SplitToningHighlightSaturation="2"
   crs:SplitToningBalance="0"
   crs:ColorGradeMidtoneHue="0"
   crs:ColorGradeMidtoneSat="0"
   crs:ColorGradeShadowLum="0"
   crs:ColorGradeMidtoneLum="0"
   crs:ColorGradeHighlightLum="0"
   crs:ColorGradeBlending="100"
   crs:ColorGradeGlobalHue="0"
   crs:ColorGradeGlobalSat="0"
   crs:ColorGradeGlobalLum="0"
   crs:AutoLateralCA="1"
   crs:LensManualDistortionAmount="0"
   crs:VignetteAmount="0"
   crs:DefringePurpleAmount="0"
   crs:DefringePurpleHueLo="30"
   crs:DefringePurpleHueHi="70"
   crs:DefringeGreenAmount="0"
   crs:DefringeGreenHueLo="40"
   crs:DefringeGreenHueHi="60"
   crs:PerspectiveUpright="0"
   crs:PerspectiveVertical="0"
   crs:PerspectiveHorizontal="0"
   crs:PerspectiveRotate="0.0"
   crs:PerspectiveAspect="0"
   crs:PerspectiveScale="100"
   crs:PerspectiveX="0.00"
   crs:PerspectiveY="0.00"
   crs:GrainAmount="13"
   crs:GrainSize="25"
   crs:GrainFrequency="50"
   crs:PostCropVignetteAmount="-6"
   crs:PostCropVignetteMidpoint="50"
   crs:PostCropVignetteFeather="50"
   crs:PostCropVignetteRoundness="0"
   crs:PostCropVignetteStyle="1"
   crs:PostCropVignetteHighlightContrast="0"
   crs:ShadowTint="-2"
   crs:RedHue="+43"
   crs:RedSaturation="+1"
   crs:GreenHue="+55"
   crs:GreenSaturation="+5"
   crs:BlueHue="-33"
   crs:BlueSaturation="+7"
   crs:ConvertToGrayscale="False"
   crs:OverrideLookVignette="True"
   crs:ToneCurveName2012="Custom"
   crs:CameraProfile="Embedded"
   crs:HasSettings="True">
   <crs:Name>
    <rdf:Alt>
     <rdf:li xml:lang="x-default">Cosmic Latte Preset 3</rdf:li>
    </rdf:Alt>
   </crs:Name>
   <crs:ShortName>
    <rdf:Alt>
     <rdf:li xml:lang="x-default"/>
    </rdf:Alt>
   </crs:ShortName>
   <crs:SortName>
    <rdf:Alt>
     <rdf:li xml:lang="x-default"/>
    </rdf:Alt>
   </crs:SortName>
   <crs:Group>
    <rdf:Alt>
     <rdf:li xml:lang="x-default">Cosmic Latte Mobile &amp; Desktop Lightroom Presets</rdf:li>
    </rdf:Alt>
   </crs:Group>
   <crs:Description>
    <rdf:Alt>
     <rdf:li xml:lang="x-default"/>
    </rdf:Alt>
   </crs:Description>
   <crs:ToneCurvePV2012>
    <rdf:Seq>
     <rdf:li>0, 0</rdf:li>
     <rdf:li>63, 54</rdf:li>
     <rdf:li>128, 136</rdf:li>
     <rdf:li>192, 202</rdf:li>
     <rdf:li>255, 255</rdf:li>
    </rdf:Seq>
   </crs:ToneCurvePV2012>
   <crs:ToneCurvePV2012Red>
    <rdf:Seq>
     <rdf:li>0, 0</rdf:li>
     <rdf:li>255, 255</rdf:li>
    </rdf:Seq>
   </crs:ToneCurvePV2012Red>
   <crs:ToneCurvePV2012Green>
    <rdf:Seq>
     <rdf:li>0, 0</rdf:li>
     <rdf:li>255, 255</rdf:li>
    </rdf:Seq>
   </crs:ToneCurvePV2012Green>
   <crs:ToneCurvePV2012Blue>
    <rdf:Seq>
     <rdf:li>0, 0</rdf:li>
     <rdf:li>255, 255</rdf:li>
    </rdf:Seq>
   </crs:ToneCurvePV2012Blue>
  </rdf:Description>
 </rdf:RDF>
</x:xmpmeta>
